X: 20801
M: 2/4
L: 1/16
K: C
V: 1 name="1"
cd |\
e4 d2e2 | c2G2 G2AB | c2Bc d2cd | e2c2 G4 |\
e4 d2e2 | c2G2 G2AB | c2Bc d2cB | c2e2c2 H|]
|: GA |\
z2 |\
a2a2 a2a2 | a2b2 e4 | d2c2B2A2 | B2A2 E4 |\
{^g}a2{g}a2 {g}a2{g}a2 | a2b2 e4 | d2c2 B2a2 | A2B2 c2"^D.C."d2 |]


